frontend/src/assets/icons/css3-icon.svg

<?xml version="1.0" encoding="UTF-8"?>
<svg xmlns="http://www.w3.org/2000/svg" xmlns:xlink="http://www.w3.org/1999/xlink" width="128pt" height="128pt" viewBox="0 0 128 128" version="1.1">
<g id="surface1">
<path style=" stroke:none;fill-rule:nonzero;fill:rgb(7.45098%,7.45098%,7.45098%);fill-opacity:1;" d="M 89.234375 5.855469 L 81.851562 5.855469 L 89.527344 14.1875 L 89.527344 18.15625 L 73.714844 18.15625 L 73.714844 13.511719 L 81.390625 13.511719 L 73.714844 5.179688 L 73.714844 1.207031 L 89.234375 1.207031 Z M 70.578125 5.855469 L 63.191406 5.855469 L 70.871094 14.1875 L 70.871094 18.15625 L 55.054688 18.15625 L 55.054688 13.511719 L 62.734375 13.511719 L 55.054688 5.179688 L 55.054688 1.207031 L 70.578125 1.207031 Z M 52.101562 6.046875 L 44.136719 6.046875 L 44.136719 13.316406 L 52.101562 13.316406 L 52.101562 18.15625 L 38.472656 18.15625 L 38.472656 1.207031 L 52.101562 1.207031 Z M 52.101562 6.046875 "/>
<path style=" stroke:none;fill-rule:nonzero;fill:rgb(8.235294%,44.705882%,71.372549%);fill-opacity:1;" d="M 27.613281 116.707031 L 19.515625 25.894531 L 108.484375 25.894531 L 100.378906 116.691406 L 63.945312 126.792969 Z M 27.613281 116.707031 "/>
<path style=" stroke:none;fill-rule:nonzero;fill:rgb(20%,66.27451%,86.27451%);fill-opacity:1;" d="M 64 119.070312 L 93.441406 110.910156 L 100.367188 33.320312 L 64 33.320312 Z M 64 119.070312 "/>
<path style=" stroke:none;fill-rule:nonzero;fill:rgb(100%,100%,100%);fill-opacity:1;" d="M 64 66.21875 L 78.738281 66.21875 L 79.757812 54.816406 L 64 54.816406 L 64 43.675781 L 91.929688 43.675781 L 91.660156 46.664062 L 88.925781 77.355469 L 64 77.355469 Z M 64 66.21875 "/>
<path style=" stroke:none;fill-rule:nonzero;fill:rgb(92.156863%,92.156863%,92.156863%);fill-opacity:1;" d="M 64.066406 95.144531 L 64.019531 95.160156 L 51.613281 91.808594 L 50.820312 82.925781 L 39.640625 82.925781 L 41.203125 100.414062 L 64.015625 106.746094 L 64.066406 106.734375 Z M 64.066406 95.144531 "/>
<path style=" stroke:none;fill-rule:nonzero;fill:rgb(100%,100%,100%);fill-opacity:1;" d="M 77.792969 76.886719 L 76.449219 91.800781 L 64.027344 95.15625 L 64.027344 106.742188 L 86.859375 100.414062 L 87.027344 98.53125 L 88.96875 76.886719 Z M 77.792969 76.886719 "/>
<path style=" stroke:none;fill-rule:nonzero;fill:rgb(92.156863%,92.156863%,92.156863%);fill-opacity:1;" d="M 64.039062 43.675781 L 64.039062 54.8125 L 37.136719 54.8125 L 36.910156 52.3125 L 36.40625 46.664062 L 36.136719 43.675781 Z M 64 66.222656 L 64 77.359375 L 51.753906 77.359375 L 51.53125 74.855469 L 51.023438 69.210938 L 50.753906 66.222656 Z M 64 66.222656 "/>
</g>
</svg>

<svg xmlns="http://www.w3.org/2000/svg" viewBox="0 0 128 128"><path fill="#131313" d="M89.234 5.856h-7.384l7.679 8.333v3.967h-15.816v-4.645h7.678l-7.678-8.333v-3.971h15.521v4.649zm-18.657 0h-7.384l7.679 8.333v3.967h-15.817v-4.645h7.679l-7.679-8.333v-3.971h15.522v4.649zm-18.474.19h-7.968v7.271h7.968v4.839h-13.632v-16.949h13.632v4.839z"/><path fill="#1572B6" d="M27.613 116.706l-8.097-90.813h88.967l-8.104 90.798-36.434 10.102-36.332-10.087z"/><path fill="#33A9DC" d="M64.001 119.072l29.439-8.162 6.926-77.591h-36.365v85.753z"/><path fill="#fff" d="M64 66.22h14.738l1.019-11.405h-15.757v-11.138h27.929000000000002l-.267 2.988-2.737 30.692h-24.925v-11.137z"/><path fill="#EBEBEB" d="M64.067 95.146l-.049.014-12.404-3.35-.794-8.883h-11.178999999999998l1.561 17.488 22.814 6.333.052-.015v-11.587z"/><path fill="#fff" d="M77.792 76.886l-1.342 14.916-12.422 3.353v11.588l22.833-6.328.168-1.882 1.938-21.647h-11.175z"/><path fill="#EBEBEB" d="M64.039 43.677v11.136999999999999h-26.903000000000002l-.224-2.503-.507-5.646-.267-2.988h27.901zM64 66.221v11.138h-12.247l-.223-2.503-.508-5.647-.267-2.988h13.245z"/></svg>
